X: 37415
T: Sleigh Ride
R: polka
M: 2/4
K: Cmajor
.g .g.g|ga g/e/c|de d/c/A|G4-|GA Bd|
g>a g/e/d/c/|d>e d/c/A|c4-|c.g .g.g|
ga g/e/c|dd/e/ d/c/A|G4-|GG/A/ B/c/d/e/|
g>a g/e/d/c/|d>e d/c/A|c4-|c3||
F/G/|dF/G/ dF/G/|de c2-|cd c/A/F|B4-|
Bc B/G/E/G/|Bd ce|A4-|A3||
E/F/|cE/F/ cE/F/|cd B2-|Bc B/G/E|A4-|
Ad A/G/D|GA/d/ A/G/D|GA/d/ gd|G||
ending for bridge ~|GA/d/ gd|G3||~
.d.d .d.d|.d.d .d.d|dg zc|B3 G/A/|
.B.B .B.B|.B.B .B.B|Be zB|A3 E/F/|
G/F/E EG|Fc BA|Gf ed|
[1 c3 B/A/|B/A/^G GA|Ba ^g^f|e2 B2|e3:|
[2 c4-|cg d/c/G|cd/g/ d/c/G|GA/d/ gd|G||

